X:1
T:G Major Walter Janes, 1803 Revised 1807
T:Anne Steele, 1760 (Psalm 150)        88. 88. (L. M.)
T:Extollation
T:Transcribed from The Harmonic Minstrelsey, 1807.
%%score [ 1 2 3 4 ]
L:1/8
Q:1/4=150
M:4/4
K:G
V:1 treble nm="Tr." snm="Tr."
V:2 treble nm="C." snm="C."
V:3 treble-8 nm="T." snm="T."
V:4 bass nm="B." snm="B."
V:1
"^1. A  –  wake the trumpet's piercing   sound,    To spread your sacred pleasure round;  While  sof – ter     music   tunes  the  lute,     The" d8 | %1
 d2 d2 B2 e2 | d4 d4 | B6 A2 | G2 G2 A2 A2 | B4 e4 | d6 d2 | B4 B4 | c2 e2 d2 ^c2 | d6 d2 | %10
"^war        –        –        –         –    bling  harp, the  breathing   flute.  Ye virgin train, with joy advance To praise him in the graceful dance;  To" (dedcBcBA | %11
 G3) A B2 [eg]2 | d4 d4 | B6 d2 | B2 G2 G2 B2 | d2 B2 B2 d2 | c2 A2 A2 c2 | B2 G2 G2 B2 | %18
"^praise a – wake         each   tune    –    ful    string,    And to the solemn organ sing,     And  to   the  solemn       or  – gan   sing." d4 d4 | %19
 B6 d2 | c4 A4 | A4 z4 | z8 | z4 z2 d2 | d2 B2 c2 e2 | d4 d4 | d8 |] %27
V:2
"^2. Praise   ye  the  Lord;  let  praise  employ      In  his own courts your songs of  joy;       The   spacious     fir–ma–ment  a – round  Shall" G8 | %1
 G2 G2 G2 G2 | G4 F4 | G6 F2 | G2 G2 F2 A2 | G4 E4 | F6 D2 | G4 G4 | G2 G2 A2 A2 | A6 A2 | %10
"^e        –        –        –        –        –    cho back the  joy–ful  sound.   Recount his works in strains divine;  His wondrous works how bright they shine! Praise" G8- | %11
 G3 G G2 G2 | G4 F4 | G6 D2 | G2 G2 G2 G2 | G2 G2 G2 G2 | A2 F2 A2 F2 | [GB]2 [EG]2 [EG]2 G2 | %18
"^him  for  his              al –migh–ty deeds, Whose greatness all your praise exceeds, Whose greatness all your praise exceeds." B4 A4 | %19
 (B3 A G2) B2 | A4 A4 | A4 z4 | z8 | z4 z2 A2 | B2 B2 G2 cA | G4 [FA]4 | [GB]8 |] %27
V:3
"^3. Let         the loud cymbal   sounding   high,     To    softer,  deeper   notes   re   –   ply;        Har–mo–nious  let  the  concert    rise,     And" G8 | %1
 B2 d2 d2 c2 | B4 A4 | G6 A2 | B2 d2 d2 c2 | B4 ^c4 | d6 G2 | B4 d4 | e2 g2 f2 e2 | d6 d2 | %10
"^bear ________________________________ the  rapture    to  the skies.  Let all whom life and breath inspire,  Attend and join the blissful choir;  But" (GABcdcBA | %11
 d3) e d2 c2 | B4 A4 | G6 z2 | z8 | z8 | z8 | z4 z2 G2 | %18
"^chiefly    you                who  know      his    word,   Adore, and love, and praise the Lord,  Adore, and love, and praise the Lord." z4 z4 | %19
 d6 g2 | (f2 ed) e4 | d4 z2 G2 | B2 d2 d2 c2 | B2 d2 d2 d2 | B2 g2 e2 c2 | B4 A4 | G8 |] %27
V:4
 G,8 | G,2 G,2 G,2 C,2 | D,4 D,4 | G,6 D,2 | G,2 G,2 D,2 F,2 | G,4 A,4 | D,6 G,2 | G,4 G,4 | %8
 C,2 C,2 A,2 A,2 | D,6 D,2 | G,8- | G,3 G, G,2 C,2 | D,4 D,4 | G,,6 z2 | z8 | z8 | z8 | z4 z2 G,2 | %18
 G,4 D,4 | G,6 G,2 | A,4 A,,4 | D,4 z2 G,2 | G,2 B,2 B,2 A,2 | G,2 G,2 G,2 D,2 | G,2 G,2 C2 A,2 | %25
 D4 D,4 | G,8 |] %27

